Simply-Red-Circles/scalable/apps/preferences-desktop-theme.svg

<svg xmlns="http://www.w3.org/2000/svg" width="48" height="48" viewBox="0 0 12.7 12.7"><path fill="#a02c2c" d="M6.344.073a6.29 6.29 0 0 0-6.29 6.29 6.29 6.29 0 0 0 6.29 6.288 6.29 6.29 0 0 0 6.29-6.289 6.29 6.29 0 0 0-6.29-6.29zm-.018.936a5.407 5.407 0 0 1 5.407 5.407 5.407 5.407 0 0 1-5.407 5.407A5.407 5.407 0 0 1 .92 6.416 5.407 5.407 0 0 1 6.326 1.01zM3.883 2.526a2.206 2.206 0 0 0-.544.056.103.103 0 0 0-.045.022c-.021.022-.037.054-.03.086a.091.091 0 0 0 .046.075l1.014.567c.09.05.135.164.126.31a1.155 1.155 0 0 1-.154.492 1.14 1.14 0 0 1-.332.395c-.119.082-.237.108-.327.058l-1.003-.561a.1.1 0 0 0-.114.006.091.091 0 0 0-.034.08h-.002c0 .01 0 .024.007.034.16.458.485.888.854 1.095.292.163.62.198.928.12.21.084.492.233.8.528h-.001l.273.231c.271-.341.498-.557.737-.79l-.215-.23-.003-.003a2.497 2.497 0 0 1-.508-.922c.102-.574-.138-1.162-.642-1.444a1.815 1.815 0 0 0-.831-.204zm5.73.269c-.471-.013-1.11.12-1.214.948L6.736 5.015l-.194.183C5.048 6.494 2.766 9.68 2.766 9.68c-.099.234.189.404.348.252 0 0 2.853-2.595 4.178-3.94l.19-.215L8.88 4.112c.007-.001.016 0 .022-.002.25-.041.467-.246.584-.627.134-.436.452-.647.52-.646a2.734 2.734 0 0 0-.393-.042zM7.225 6.372c-.263.293-.552.586-.878.879l2.622 2.802c.256.255.694.222.986-.07.292-.293.326-.731.07-.987l-2.8-2.624zm2.202 2.71a.374.374 0 0 1 .264.637.374.374 0 1 1-.264-.638z"/></svg>

<?xml version="1.0" encoding="UTF-8" standalone="no"?>
<svg
   xmlns:dc="http://purl.org/dc/elements/1.1/"
   xmlns:cc="http://creativecommons.org/ns#"
   xmlns:rdf="http://www.w3.org/1999/02/22-rdf-syntax-ns#"
   xmlns:svg="http://www.w3.org/2000/svg"
   xmlns="http://www.w3.org/2000/svg"
   xmlns:sodipodi="http://sodipodi.sourceforge.net/DTD/sodipodi-0.dtd"
   xmlns:inkscape="http://www.inkscape.org/namespaces/inkscape"
   width="48"
   height="48"
   viewBox="0 0 12.7 12.7"
   version="1.1"
   id="svg4"
   sodipodi:docname="preferences-desktop-theme.svg"
   inkscape:version="0.92.4 (5da689c313, 2019-01-14)">
  <metadata
     id="metadata10">
    <rdf:RDF>
      <cc:Work
         rdf:about="">
        <dc:format>image/svg+xml</dc:format>
        <dc:type
           rdf:resource="http://purl.org/dc/dcmitype/StillImage" />
        <dc:title></dc:title>
      </cc:Work>
    </rdf:RDF>
  </metadata>
  <defs
     id="defs8" />
  <sodipodi:namedview
     pagecolor="#ffffff"
     bordercolor="#666666"
     borderopacity="1"
     objecttolerance="10"
     gridtolerance="10"
     guidetolerance="10"
     inkscape:pageopacity="0"
     inkscape:pageshadow="2"
     inkscape:window-width="1087"
     inkscape:window-height="480"
     id="namedview6"
     showgrid="false"
     inkscape:zoom="4.9166667"
     inkscape:cx="2.1355932"
     inkscape:cy="24"
     inkscape:window-x="0"
     inkscape:window-y="25"
     inkscape:window-maximized="0"
     inkscape:current-layer="svg4" />
  <path
     d="m 6.344,0.073 a 6.29,6.29 0 0 0 -6.29,6.29 6.29,6.29 0 0 0 6.29,6.288 6.29,6.29 0 0 0 6.29,-6.289 6.29,6.29 0 0 0 -6.29,-6.29 z M 6.326,1.009 A 5.407,5.407 0 0 1 11.733,6.416 5.407,5.407 0 0 1 6.326,11.823 5.407,5.407 0 0 1 0.92,6.416 5.407,5.407 0 0 1 6.326,1.01 Z M 3.883,2.526 A 2.206,2.206 0 0 0 3.339,2.582 0.103,0.103 0 0 0 3.294,2.604 C 3.273,2.626 3.257,2.658 3.264,2.69 A 0.091,0.091 0 0 0 3.31,2.765 L 4.324,3.332 C 4.414,3.382 4.459,3.496 4.45,3.642 4.445,3.788 4.391,3.959 4.296,4.134 A 1.14,1.14 0 0 1 3.964,4.529 C 3.845,4.611 3.727,4.637 3.637,4.587 L 2.634,4.026 C 2.598,4.005 2.552,4.005 2.52,4.032 A 0.091,0.091 0 0 0 2.486,4.112 H 2.484 c 0,0.01 0,0.024 0.007,0.034 0.16,0.458 0.485,0.888 0.854,1.095 0.292,0.163 0.62,0.198 0.928,0.12 0.21,0.084 0.492,0.233 0.8,0.528 H 5.072 L 5.345,6.12 C 5.616,5.779 5.843,5.563 6.082,5.33 L 5.867,5.1 5.864,5.097 A 2.497,2.497 0 0 1 5.356,4.175 C 5.458,3.601 5.218,3.013 4.714,2.731 A 1.815,1.815 0 0 0 3.883,2.527 Z m 5.73,0.269 C 9.142,2.782 8.503,2.915 8.399,3.743 L 6.736,5.015 6.542,5.198 C 5.048,6.494 2.766,9.68 2.766,9.68 c -0.099,0.234 0.189,0.404 0.348,0.252 0,0 2.853,-2.595 4.178,-3.94 L 7.482,5.777 8.88,4.112 C 8.887,4.111 8.896,4.112 8.902,4.11 9.152,4.069 9.369,3.864 9.486,3.483 9.62,3.047 9.938,2.836 10.006,2.837 A 2.734,2.734 0 0 0 9.613,2.795 Z M 7.225,6.372 C 6.962,6.665 6.673,6.958 6.347,7.251 l 2.622,2.802 c 0.256,0.255 0.694,0.222 0.986,-0.07 0.292,-0.293 0.326,-0.731 0.07,-0.987 z m 2.202,2.71 A 0.374,0.374 0 0 1 9.691,9.719 0.374,0.374 0 1 1 9.427,9.081 Z"
     id="path2"
     inkscape:connector-curvature="0"
     style="fill:#a02c2c" />
</svg>
